lib/svgs/team-bus.svg

<?xml version="1.0" encoding="UTF-8"?>
<svg width="16px" height="16px" viewBox="0 0 16 16" version="1.1" xmlns="http://www.w3.org/2000/svg" xmlns:xlink="http://www.w3.org/1999/xlink">
    <!-- Generator: sketchtool 51.3 (57544) - http://www.bohemiancoding.com/sketch -->
    <title>team/team-bus</title>
    <desc>Created with sketchtool.</desc>
    <defs></defs>
    <g id="Icons" stroke="none" stroke-width="1" fill="none" fill-rule="evenodd">
        <g id="Web" transform="translate(-243.000000, -2394.000000)" fill="#000000">
            <g id="team/team-bus" transform="translate(243.000000, 2394.000000)">
                <path d="M12,0.699951172 L4,0.699951172 C2.86666667,0.699951172 2,1.56661784 2,2.69995117 L2,12.6999512 C2,13.0999512 2.26666667,13.3666178 2.66666667,13.3666178 L2.66666667,14.6999512 C2.66666667,15.0999512 2.93333333,15.3666178 3.33333333,15.3666178 L5.33333333,15.3666178 C5.73333333,15.3666178 6,15.0999512 6,14.6999512 L6,13.3666178 L10,13.3666178 L10,14.6999512 C10,15.0999512 10.2666667,15.3666178 10.6666667,15.3666178 L12.6666667,15.3666178 C13.0666667,15.3666178 13.3333333,15.0999512 13.3333333,14.6999512 L13.3333333,13.3666178 C13.7333333,13.3666178 14,13.0999512 14,12.6999512 L14,2.69995117 C14,1.56661784 13.1333333,0.699951172 12,0.699951172 L12,0.699951172 L12,0.699951172 M6,11.3666178 L4.66666667,11.3666178 C4.26666667,11.3666178 4,11.0999512 4,10.6999512 C4,10.2999512 4.26666667,10.0332845 4.66666667,10.0332845 L6,10.0332845 C6.4,10.0332845 6.66666667,10.2999512 6.66666667,10.6999512 C6.66666667,11.0999512 6.4,11.3666178 6,11.3666178 L6,11.3666178 M3.33333333,2.92203322 C3.33333333,2.43119086 3.734375,2.03328451 4.22825257,2.03328451 L11.7717474,2.03328451 C12.2659977,2.03328451 12.6666667,2.43116188 12.6666667,2.92203322 L12.6666667,6.69995117 L3.33333333,6.69995117 L3.33333333,2.92203322 L3.33333333,2.92203322 M0.666666667,5.36661784 C0.266666667,5.36661784 8.8817842e-16,5.63328451 8.8817842e-16,6.03328451 L8.8817842e-16,8.03328451 C8.8817842e-16,8.43328451 0.266666667,8.69995117 0.666666667,8.69995117 C1.06666667,8.69995117 1.33333333,8.43328451 1.33333333,8.03328451 L1.33333333,6.03328451 C1.33333333,5.63328451 1.06666667,5.36661784 0.666666667,5.36661784 L0.666666667,5.36661784 M15.3333333,5.36661784 C14.9333333,5.36661784 14.6666667,5.63328451 14.6666667,6.03328451 L14.6666667,8.03328451 C14.6666667,8.43328451 14.9333333,8.69995117 15.3333333,8.69995117 C15.7333333,8.69995117 16,8.43328451 16,8.03328451 L16,6.03328451 C16,5.63328451 15.7333333,5.36661784 15.3333333,5.36661784 L15.3333333,5.36661784" id="Shape"></path>
            </g>
        </g>
    </g>
</svg>

<svg xmlns="http://www.w3.org/2000/svg" viewBox="0 0 16 16">
    <path d="M12 .7H4c-1.133 0-2 .867-2 2v10c0 .4.267.667.667.667V14.7c0 .4.266.667.666.667h2c.4 0 .667-.267.667-.667v-1.333h4V14.7c0 .4.267.667.667.667h2c.4 0 .666-.267.666-.667v-1.333c.4 0 .667-.267.667-.667v-10c0-1.133-.867-2-2-2M6 11.367H4.667c-.4 0-.667-.267-.667-.667s.267-.667.667-.667H6c.4 0 .667.267.667.667s-.267.667-.667.667M3.333 2.922c0-.49.401-.889.895-.889h7.544c.494 0 .895.398.895.889V6.7H3.333V2.922M.667 5.367c-.4 0-.667.266-.667.666v2c0 .4.267.667.667.667s.666-.267.666-.667v-2c0-.4-.266-.666-.666-.666m14.666 0c-.4 0-.666.266-.666.666v2c0 .4.266.667.666.667S16 8.433 16 8.033v-2c0-.4-.267-.666-.667-.666"/>
</svg>
